svg/fluentui-system-icons/ic_fluent_beaker_off_32_regular.svg

<svg width="32" height="32" viewBox="0 0 32 32" fill="none" xmlns="http://www.w3.org/2000/svg">
<path d="M26.3287 27.7426L28.293 29.7068C28.6835 30.0973 29.3167 30.0973 29.7072 29.7068C30.0977 29.3163 30.0977 28.6831 29.7072 28.2926L3.70685 2.29288C3.31633 1.90237 2.68316 1.90237 2.29264 2.2929C1.90212 2.68343 1.90213 3.3166 2.29266 3.70712L11.9977 13.4119V13.4378C11.9977 14.2514 11.7496 15.0457 11.2864 15.7147L5.57637 23.9625C4.10246 26.0915 5.62622 28.9997 8.21561 28.9997H23.7797C24.8631 28.9997 25.7599 28.4906 26.3287 27.7426ZM24.8798 26.2937C24.6943 26.6972 24.2924 26.9997 23.7797 26.9997H8.21561C7.23954 26.9997 6.66517 25.9035 7.22075 25.101L10.7704 19.9737C10.8436 19.9907 10.9198 19.9997 10.9981 19.9997H18.5856L24.8798 26.2937ZM16.5856 17.9997H12.137L12.9308 16.8531C13.2917 16.3319 13.5655 15.7599 13.7453 15.1595L16.5856 17.9997ZM17.9977 13.4378C17.9977 13.8187 18.0339 14.1967 18.1049 14.567L23.9855 20.4475L20.7089 15.7147C20.2458 15.0457 19.9977 14.2514 19.9977 13.4378V4.9997H20.9981C21.5504 4.9997 21.9981 4.55198 21.9981 3.9997C21.9981 3.44741 21.5504 2.9997 20.9981 2.9997H10.9981C10.4458 2.9997 9.99811 3.44741 9.99811 3.9997C9.99811 4.55198 10.4458 4.9997 10.9981 4.9997H11.9977V8.45995L13.9977 10.4599V4.9997H17.9977V13.4378Z" fill="#212121"/>
</svg>

<svg xmlns="http://www.w3.org/2000/svg" width="32" height="32"><path d="m26.329 27.743 1.964 1.964a1 1 0 0 0 1.414-1.414l-26-26a1 1 0 0 0-1.414 1.414l9.705 9.705v.026a4 4 0 0 1-.712 2.277l-5.71 8.247C4.102 26.092 5.626 29 8.216 29H23.78c1.083 0 1.98-.51 2.549-1.257Zm-1.45-1.45a1.199 1.199 0 0 1-1.1.707H8.217a1.21 1.21 0 0 1-.997-1.9l3.55-5.127a1 1 0 0 0 .227.026h7.588l6.294 6.294ZM16.587 18h-4.449l.794-1.147a5.99 5.99 0 0 0 .814-1.694l2.84 2.84Zm1.412-4.562c0 .38.036.759.107 1.129l5.88 5.88-3.276-4.732a4 4 0 0 1-.711-2.277V5h1a1 1 0 1 0 0-2h-10a1 1 0 1 0 0 2h1v3.46l2 2V5h4v8.438Z"/></svg>
